X:2216
T:My true love once he courted me 
T:A sailors life (O Waley Waley)
T:My true love he courted me (Journal of Folk Song Society vol. not specified)
C:Traditional
O:Isle of Man
S:Tom Cowell, Marown 
Z:Clague collection
B:Kiaull Vannin #216 
M:3/2 
L:1/4 
Q:70 
K:D 
Ad c|d3e/d/ c d|A3A dc|d3e f g|e3 ef g| 
a2fe d e|f3 e dd|A>GFA A B/c/|d3|| 

